assets/flags-color/Ms.svg

<svg xmlns="http://www.w3.org/2000/svg" viewBox="0 0 512 512"><g fill="#41479b"><path d="M0 0h512v512H0z"/><path d="M94.316 0H0v19.977L94.316 81.77zM0 68.299v26.017h39.71zM0 161.684v26.017l39.71-26.017zM256 19.977V0h-94.316v81.77zM256 187.701v-26.017h-39.71zM161.684 174.23V256H256v-19.977zM256 94.316V68.299l-39.71 26.017zM0 236.023V256h94.316v-81.77z"/></g><g fill="#f5f5f5"><path d="M256 236.023v-19.964l-83.768-54.375h24.748L256 199.995v-12.294l-39.71-26.017H256V148.21H148.211V256h13.473v-81.77zM0 148.21v13.474h39.71L0 187.701v18.901l69.197-44.918h24.748L0 222.666v13.357l94.316-61.793V256h13.473V148.21zM107.789 0H94.316v81.77L0 19.977v21.862l80.842 52.477H56.094L0 57.904v10.395l39.71 26.017H0v13.474h107.789zM256 107.79V94.316h-39.71L256 68.299V49.157l-69.568 45.159h-24.748L256 33.093V19.977L161.684 81.77V0h-13.473v107.79z"/></g><g fill="#ff4b55"><path d="M256 148.21v-40.42H148.211V0h-40.422v107.79H0v40.42h107.789V256h40.422V148.21z"/><path d="M69.197 161.684L0 206.602v16.064l93.945-60.982zM172.232 161.684L256 216.059v-16.064l-59.02-38.311zM80.842 94.316L0 41.839v16.065l56.094 36.412zM186.432 94.316L256 49.157V33.093l-94.316 61.223z"/></g><path fill="#82afff" d="M305.73 280.18h137.56v106.29H305.73z"/><path fill="#c86464" d="M305.726 386.478c0 36.258 40.642 65.652 68.778 65.652 25.01 0 68.778-29.394 68.778-65.652H305.726z"/><path fill="#73af00" d="M392.871 319.002c2.214.391 5.992.912 6.383 6.253s-1.563 24.359-3.517 26.704c0 0 6.383 14.459 6.643 23.056.261 8.597-.912 34.324-.13 38.427s3.712 12.505 3.712 12.505-8.988-5.276-12.505-1.954-16.413 7.816-21.493 2.54c0 0 6.057-17.195 6.057-36.734v-67.801s2.54-2.019 5.862-2.084 8.988-.912 8.988-.912z"/><g fill="#fff5e1"><path d="M394.174 422.3c.391 2.475 1.433 4.299.912 5.21-.521.912-3.908 9.249-1.954 9.249s5.341-1.042 6.253-2.866 1.303-4.559 1.824-5.341-.912-4.689-2.084-5.341-4.951-.911-4.951-.911zM371.639 324.473l-7.164.912s.912-4.689 1.042-7.946c.13-3.256.391-9.248.391-9.248s5.08-3.126 5.21-3.648c.065-.26.668-1.889.195-2.735s-2.019-.912-2.019-.912-5.992 3.126-5.992 3.647 0 3.648-.651 4.82-4.299 10.942-4.559 13.547c-.261 2.605-.651 8.076.391 8.337 1.042.26 11.854 1.433 13.026.912s.13-7.686.13-7.686z"/></g><path fill="#464655" d="M404.096 298.746h-26.075v-12.31h-8.988v12.31h-26.074v8.988h26.074v118.213h8.988V307.734h26.075z"/><path fill="#963c3c" d="M388.703 314.703s8.727 2.513 9.9-.391c1.368-3.387-3.191-3.843-4.038-7.425-.095-.401-.912-5.21-4.429-6.122-3.517-.912-6.774 0-6.904 2.345-.13 2.345 5.471 11.593 5.471 11.593z"/><path fill="#fff5e1" d="M384.014 325.775c-.257.043-.651-2.605-.13-5.862s0-4.299 0-4.299-3.647.391-3.647-1.042.782-8.076 2.996-11.463c0 0 1.563 1.954 4.429 1.954 0 0-.13 2.345 1.433 3.908 0 0-1.954 1.693-1.042 2.866s2.605 2.605 2.605 2.605.13 2.736 2.214 4.559c-.001.001-2.606 5.732-8.858 6.774z"/><g fill="#464655"><path d="M348.32 382.31h.782v15.5h-.782zM351.47 379.31h.782v21.502h-.782zM354.61 376.57h.782v26.986h-.782zM357.76 372.65h.782v34.823h-.782zM360.9 367.52h.782v45.07h-.782zM364.05 367.52h.782v47.18h-.782z"/></g><path fill="#ffe15a" d="M378.152 392.209c-3.454-17.963-13.026-28.397-16.413-28.918s-5.862 2.215-6.122 4.169-2.084 7.816-5.862 10.551c-3.778 2.736-10.812 4.299-12.375 9.379s2.605 7.295 5.08 6.773c.185-.039.368-.111.552-.173l26.629 32.756c.967 1.19 2.85.995 3.524-.383 2.738-5.594 7.932-18.838 4.987-34.154zm-32.905.363c1.044-1.12 1.485-2.667.339-4.271-1.954-2.736-4.168 1.172-4.168 1.172s-.651-3.387 4.429-5.08 10.812-4.559 13.417-10.681 2.475-4.95 2.475-4.95 10.421 5.862 11.854 24.229-3.647 25.792-3.647 25.792l-24.699-26.211z"/><g fill="#fff5e1"><path d="M369.033 352.91c-1.196.766-2.274 1.424-3.029 1.817-2.442 1.27-5.373 2.54-5.666 3.712s-1.954 2.149-1.856 3.517c.098 1.368 0 5.471 0 5.471 1.465-.293 4.396-.782 5.373-2.54.977-1.759 1.856-5.178 4.983-6.643.056-.026.137-.053.195-.079v-5.255zM394.923 327.957c-1.465.684-5.862 5.96-6.546 8.402s-2.833 8.206-2.833 8.206-4.439.58-7.523 2.305v8.532c1.708-.495 3.22-.982 4.103-1.458 2.54-1.368 6.155-3.908 8.011-4.396s3.419-3.615 4.103-5.471 2.833-7.327 3.126-11.04-.976-5.764-2.441-5.08z"/></g><path fill="#f5f5f5" d="M374.504 454.346l-.342-.055c-69.822-11.024-70.625-71.499-70.625-74.066v-102.23h141.935v102.23c0 2.568-.803 63.042-70.625 74.066l-.343.055zm-66.589-171.973v97.852c0 2.412.756 59.1 66.589 69.688 65.834-10.588 66.589-67.276 66.589-69.688v-97.852H307.915z"/></svg>

<svg xmlns="http://www.w3.org/2000/svg" x="0" y="0" enable-background="new 0 0 512 512" version="1.1" viewBox="0 0 512 512" xml:space="preserve"><g fill="#41479B"><path d="M0 0H512V512H0z"/><path d="M94.316 0 0 0 0 19.977 94.316 81.77z"/><path d="M0 68.299 0 94.316 39.71 94.316z"/><path d="M0 161.684 0 187.701 39.71 161.684z"/><path d="M256 19.977 256 0 161.684 0 161.684 81.77z"/><path d="M256 187.701 256 161.684 216.29 161.684z"/><path d="M161.684 174.23 161.684 256 256 256 256 236.023z"/><path d="M256 94.316 256 68.299 216.29 94.316z"/><path d="M0 236.023 0 256 94.316 256 94.316 174.23z"/></g><g fill="#F5F5F5"><path d="M256 236.023 256 216.059 172.232 161.684 196.98 161.684 256 199.995 256 187.701 216.29 161.684 256 161.684 256 148.21 148.211 148.21 148.211 256 161.684 256 161.684 174.23z"/><path d="M0 148.21 0 161.684 39.71 161.684 0 187.701 0 206.602 69.197 161.684 93.945 161.684 0 222.666 0 236.023 94.316 174.23 94.316 256 107.789 256 107.789 148.21z"/><path d="M107.789 0 94.316 0 94.316 81.77 0 19.977 0 41.839 80.842 94.316 56.094 94.316 0 57.904 0 68.299 39.71 94.316 0 94.316 0 107.79 107.789 107.79z"/><path d="M256 107.79 256 94.316 216.29 94.316 256 68.299 256 49.157 186.432 94.316 161.684 94.316 256 33.093 256 19.977 161.684 81.77 161.684 0 148.211 0 148.211 107.79z"/></g><g fill="#FF4B55"><path d="M256 148.21 256 107.79 148.211 107.79 148.211 0 107.789 0 107.789 107.79 0 107.79 0 148.21 107.789 148.21 107.789 256 148.211 256 148.211 148.21z"/><path d="M69.197 161.684 0 206.602 0 222.666 93.945 161.684z"/><path d="M172.232 161.684 256 216.059 256 199.995 196.98 161.684z"/><path d="M80.842 94.316 0 41.839 0 57.904 56.094 94.316z"/><path d="M186.432 94.316 256 49.157 256 33.093 161.684 94.316z"/></g><path fill="#82AFFF" d="M305.73 280.18H443.29V386.47H305.73z"/><path fill="#C86464" d="M305.726 386.478c0 36.258 40.642 65.652 68.778 65.652 25.01 0 68.778-29.394 68.778-65.652H305.726z"/><path fill="#73AF00" d="M392.871 319.002c2.214.391 5.992.912 6.383 6.253s-1.563 24.359-3.517 26.704c0 0 6.383 14.459 6.643 23.056.261 8.597-.912 34.324-.13 38.427s3.712 12.505 3.712 12.505-8.988-5.276-12.505-1.954-16.413 7.816-21.493 2.54c0 0 6.057-17.195 6.057-36.734v-67.801s2.54-2.019 5.862-2.084 8.988-.912 8.988-.912z"/><g fill="#FFF5E1"><path d="M394.174 422.3c.391 2.475 1.433 4.299.912 5.21-.521.912-3.908 9.249-1.954 9.249s5.341-1.042 6.253-2.866 1.303-4.559 1.824-5.341-.912-4.689-2.084-5.341-4.951-.911-4.951-.911zM371.639 324.473l-7.164.912s.912-4.689 1.042-7.946c.13-3.256.391-9.248.391-9.248s5.08-3.126 5.21-3.648c.065-.26.668-1.889.195-2.735s-2.019-.912-2.019-.912-5.992 3.126-5.992 3.647 0 3.648-.651 4.82-4.299 10.942-4.559 13.547c-.261 2.605-.651 8.076.391 8.337 1.042.26 11.854 1.433 13.026.912s.13-7.686.13-7.686z"/></g><path fill="#464655" d="M404.096 298.746 378.021 298.746 378.021 286.436 369.033 286.436 369.033 298.746 342.959 298.746 342.959 307.734 369.033 307.734 369.033 425.947 378.021 425.947 378.021 307.734 404.096 307.734z"/><path fill="#963C3C" d="M388.703 314.703s8.727 2.513 9.9-.391c1.368-3.387-3.191-3.843-4.038-7.425-.095-.401-.912-5.21-4.429-6.122-3.517-.912-6.774 0-6.904 2.345-.13 2.345 5.471 11.593 5.471 11.593z"/><path fill="#FFF5E1" d="M384.014 325.775c-.257.043-.651-2.605-.13-5.862s0-4.299 0-4.299-3.647.391-3.647-1.042.782-8.076 2.996-11.463c0 0 1.563 1.954 4.429 1.954 0 0-.13 2.345 1.433 3.908 0 0-1.954 1.693-1.042 2.866s2.605 2.605 2.605 2.605.13 2.736 2.214 4.559c-.001.001-2.606 5.732-8.858 6.774z"/><g fill="#464655"><path d="M348.32 382.31H349.102V397.81H348.32z"/><path d="M351.47 379.31H352.252V400.812H351.47z"/><path d="M354.61 376.57H355.392V403.556H354.61z"/><path d="M357.76 372.65H358.542V407.47299999999996H357.76z"/><path d="M360.9 367.52H361.68199999999996V412.59H360.9z"/><path d="M364.05 367.52H364.832V414.7H364.05z"/></g><path fill="#FFE15A" d="M378.152 392.209c-3.454-17.963-13.026-28.397-16.413-28.918s-5.862 2.215-6.122 4.169-2.084 7.816-5.862 10.551c-3.778 2.736-10.812 4.299-12.375 9.379s2.605 7.295 5.08 6.773c.185-.039.368-.111.552-.173l26.629 32.756c.967 1.19 2.85.995 3.524-.383 2.738-5.594 7.932-18.838 4.987-34.154zm-32.905.363c1.044-1.12 1.485-2.667.339-4.271-1.954-2.736-4.168 1.172-4.168 1.172s-.651-3.387 4.429-5.08 10.812-4.559 13.417-10.681 2.475-4.95 2.475-4.95 10.421 5.862 11.854 24.229-3.647 25.792-3.647 25.792l-24.699-26.211z"/><g fill="#FFF5E1"><path d="M369.033 352.91c-1.196.766-2.274 1.424-3.029 1.817-2.442 1.27-5.373 2.54-5.666 3.712s-1.954 2.149-1.856 3.517c.098 1.368 0 5.471 0 5.471 1.465-.293 4.396-.782 5.373-2.54.977-1.759 1.856-5.178 4.983-6.643.056-.026.137-.053.195-.079v-5.255zM394.923 327.957c-1.465.684-5.862 5.96-6.546 8.402s-2.833 8.206-2.833 8.206-4.439.58-7.523 2.305v8.532c1.708-.495 3.22-.982 4.103-1.458 2.54-1.368 6.155-3.908 8.011-4.396s3.419-3.615 4.103-5.471 2.833-7.327 3.126-11.04-.976-5.764-2.441-5.08z"/></g><path fill="#F5F5F5" d="m374.504 454.346-.342-.055c-69.822-11.024-70.625-71.499-70.625-74.066v-102.23h141.935v102.23c0 2.568-.803 63.042-70.625 74.066l-.343.055zm-66.589-171.973v97.852c0 2.412.756 59.1 66.589 69.688 65.834-10.588 66.589-67.276 66.589-69.688v-97.852H307.915z"/></svg>
